static/assets/images/addons/logos/nats.svg

<svg width="32" height="32" viewBox="0 0 32 32" fill="none" xmlns="http://www.w3.org/2000/svg">
<path d="M0.761902 0V20.0077C1.67619 18.2813 3.41333 17.1407 5.39428 17.1407C5.48571 17.1407 5.57714 17.1407 5.66857 17.1407V5.85742H11.3676L22.3695 16.2158V5.85742H26.0267V19.2678H20.48L9.32571 8.72447V18.9595C9.41714 19.0829 9.53904 19.2062 9.63047 19.3295C10.179 19.0829 10.7886 18.9287 11.3981 18.9287C13.8667 18.9287 15.8781 21.0559 15.8781 23.6763C15.8781 23.9538 15.8476 24.2312 15.8171 24.5087C17.3409 24.9711 18.4381 26.4509 18.4381 28.2081C18.4381 28.5472 18.4076 28.8863 18.3162 29.1946L21.2724 31.9692V25.0019H31.2381V0H0.761902Z" fill="#1971BD"/>
<path d="M7.28381 19.792C8.77714 21.3026 10.3314 22.844 11.9162 24.4471C11.1848 24.4471 10.4533 24.4471 9.66095 24.4471C9.66095 26.081 9.66095 27.6841 9.66095 29.2872C8.01523 29.2872 6.46095 29.2872 4.84571 29.2872C4.84571 27.6841 4.84571 26.1118 4.84571 24.4779C4.05333 24.4779 3.3219 24.4779 2.56 24.4779C4.17524 22.8748 5.72952 21.3334 7.28381 19.792Z" fill="#1971BD"/>
</svg>

<svg xmlns="http://www.w3.org/2000/svg" width="32" height="32" fill="#1971bd" xmlns:v="https://vecta.io/nano"><path d="M.762 0v20.008c.914-1.726 2.651-2.867 4.632-2.867h.274V5.857h5.699L22.37 16.216V5.857h3.657v13.41H20.48L9.326 8.724V18.96c.091.123.213.247.305.37.549-.247 1.158-.401 1.768-.401 2.469 0 4.48 2.127 4.48 4.748a7.51 7.51 0 0 1-.061.832c1.524.462 2.621 1.942 2.621 3.699 0 .339-.03.678-.122.986l2.956 2.775v-6.967h9.966V0H.762zm6.522 19.792l4.632 4.655H9.661v4.84H4.846v-4.809H2.56l4.724-4.686z"/></svg>
